X:596
T: BET KINDCHEN BET
N: E1913
O: Europa, Mitteleuropa, Deutschland, Schwaben; Rheinland
R: Kinder - Lied, religioes
M: 2/4
L: 1/8
K: F
 | A2GG | F2z2 |
AAGG | F2z2 |
cccc | ddd2 |
BBBB | ccc2 |
A2GG | F2z2

@@@ Tune index: 5280
